PortableApps/LibreOfficePortable/App/libreoffice/help/media/icon-themes/cmd/lc_toolbarmode.svg

<svg viewBox="0 0 24 24" xmlns="http://www.w3.org/2000/svg"><path d="m3 4v2h16v-2zm0 4v12h10.585938l5.414062-5.414062v-6.585938z" fill="#fff"/><path d="m2 8v12c0 .554.446 1 1 1h9.585938l1-1h-10.585938v-12zm17 0v6.585938l1-1v-5.585938z" fill="#808080"/><g fill="#4d82b8"><path d="m2 3v4h18v-4zm1 1h16v2h-16z"/><path d="m22 13-9 9h9zm-1 2.773608v.976392 4.25h-4.25-.952422z"/></g></svg>

<svg viewBox="0 0 24 24" xmlns="http://www.w3.org/2000/svg">
  <path
     style="fill:#ffffff"
     d="M 3 4 L 3 6 L 19 6 L 19 4 L 3 4 z M 3 8 L 3 20 L 13.585938 20 L 19 14.585938 L 19 8 L 3 8 z "
     />
  <path
     style="fill:#808080"
     d="M 2 8 L 2 20 C 2 20.554 2.446 21 3 21 L 12.585938 21 L 13.585938 20 L 3 20 L 3 8 L 2 8 z M 19 8 L 19 14.585938 L 20 13.585938 L 20 8 L 19 8 z "
     />
  <path
     style="fill:#4d82b8"
     d="M 2,3 2,7 20,7 20,3 Z M 3,4 19,4 19,6 3,6 Z"
     />
  <path
     style="fill:#4d82b8"
     d="m 22,13 -9,9 9,0 z m -1,2.773608 0,0.976392 0,4.25 -4.25,0 -0.952422,0 z"
     />
</svg>
